packages/core/src/svgs/tokens/mono/TIFI.svg

<svg width="24" height="24" viewBox="0 0 24 24" fill="none" xmlns="http://www.w3.org/2000/svg">
<path d="M2 14.9999V14.8L9.12498 7.5H12.425L15 10.16L13.305 11.935L10.78 9.28999L5.28 14.9999H2ZM22 8.99999V9.19999L14.8749 16.5H11.575L8.99999 13.84L10.695 12.065L13.22 14.71L18.7199 8.99999H22Z" fill="white"/>
</svg>

<svg xmlns="http://www.w3.org/2000/svg" width="24" height="24" fill="none" viewBox="0 0 24 24">
    <path fill="#fff" d="M2 15v-.2l7.125-7.3h3.3L15 10.16l-1.695 1.775L10.78 9.29 5.28 15zm20-6v.2l-7.125 7.3h-3.3L9 13.84l1.695-1.775 2.525 2.645L18.72 9z"/>
</svg>
